X: 20572
T: The EXILE OF ERIN
Q: "Andante"
%R: reel, hornpipe
B: "Edinburgh Repository of Music" v.2 p.57 #2
F: http://digital.nls.uk/special-collections-of-printed-music/pageturner.cfm?id=87776133
Z: 2015 John Chambers <jc:trillian.mit.edu>
M: C
L: 1/8
K: D
A |\
d2de dccd | BABd B>AF>A |\
A>GFE D>EFA | B>dc>d d2z A/A/ |\
d2de {d}c2cd |
B>ABd B>AF>B |\
A>GFE D>EFA | B>dTc>d d2z A/A/ |\
d2de f2ff | g>f e/f/g f<d (3(BcA) |
(3(def) ed (dc)cd | B>ABd A>GF Ha |\
agfe d2dc | BABd BAHF B |\
AGFE D>EFA | B2Tc>d d2z |]

%%sep 2 1 500
%%sep 1 1 500

